Simply-Blue-Circles/scalable/categories/applications-fonts.svg

<?xml version="1.0" encoding="UTF-8" standalone="no"?><svg xmlns:dc="http://purl.org/dc/elements/1.1/" xmlns:cc="http://creativecommons.org/ns#" xmlns:rdf="http://www.w3.org/1999/02/22-rdf-syntax-ns#" xmlns="http://www.w3.org/2000/svg" width="48" height="48" viewBox="0 0 12.7 12.7"><metadata><rdf:RDF><cc:Work><dc:format>image/svg+xml</dc:format><dc:type rdf:resource="http://purl.org/dc/dcmitype/StillImage"/><dc:title/></cc:Work></rdf:RDF></metadata><path fill="#2c89a0" d="M6.34.07a6.29 6.29 0 0 0-6.29 6.3 6.29 6.29 0 0 0 6.3 6.28 6.29 6.29 0 0 0 6.28-6.29A6.29 6.29 0 0 0 6.34.07zm-.01.94a5.4 5.4 0 0 1 5.4 5.4 5.4 5.4 0 0 1-5.4 5.41 5.4 5.4 0 0 1-5.41-5.4A5.4 5.4 0 0 1 6.32 1zm-.14 2.4c-.08 0-.13.04-.16.13L3.24 8.2c-.22.33-.43.75-.85.85-.15-.05-.16.2-.09.24H4c.02-.17-.02-.27-.22-.23-.39.06-.35-.4-.2-.62.17-.35.38-.69.57-1.03H6.1c.06.42.16.84.2 1.27.07.35-.32.39-.57.4-.07-.02-.1.25.02.21h2.02v-.01h.1c.22 0 .45-.06.69-.2.16-.09.35-.23.56-.42 0 .27.07.45.23.55a.6.6 0 0 0 .33.08c.1 0 .2-.02.3-.06.16-.07.31-.19.47-.37v-.23a1 1 0 0 1-.18.12.46.46 0 0 1-.2.05c-.12 0-.2-.04-.22-.12a1.55 1.55 0 0 1-.04-.38V6.6c0-.4-.05-.7-.16-.89-.2-.32-.57-.49-1.13-.49-.44 0-.8.12-1.07.35-.22.2-.33.4-.33.6 0 .1.03.18.1.27.06.08.15.12.27.12.1 0 .2-.04.28-.11a.36.36 0 0 0 .1-.26 3.34 3.34 0 0 1-.03-.16 2 2 0 0 1 0-.18c0-.13.06-.23.18-.3a.77.77 0 0 1 .43-.12.7.7 0 0 1 .43.13c.15.12.23.31.23.58v.53c-.82.32-1.35.57-1.6.74a1.3 1.3 0 0 0-.48.55l-.36-2.15-.4-2.41a.3.3 0 0 0-.08 0zM5.66 4.7l.38 2.29h-1.7l1.32-2.3zM9.1 6.88v1.25a.72.72 0 0 1-.05.31c-.03.06-.12.12-.24.18a1 1 0 0 1-.25.1.9.9 0 0 1-.29.06.52.52 0 0 1-.4-.2.74.74 0 0 1-.17-.5c0-.2.08-.38.22-.55.22-.24.61-.46 1.18-.65z"/></svg>

<?xml version="1.0" encoding="UTF-8" standalone="no"?>
<svg
   xmlns:dc="http://purl.org/dc/elements/1.1/"
   xmlns:cc="http://creativecommons.org/ns#"
   xmlns:rdf="http://www.w3.org/1999/02/22-rdf-syntax-ns#"
   xmlns:svg="http://www.w3.org/2000/svg"
   xmlns="http://www.w3.org/2000/svg"
   xmlns:sodipodi="http://sodipodi.sourceforge.net/DTD/sodipodi-0.dtd"
   xmlns:inkscape="http://www.inkscape.org/namespaces/inkscape"
   width="48"
   height="48"
   viewBox="0 0 12.7 12.7"
   version="1.1"
   id="svg6"
   sodipodi:docname="applications-fonts.svg"
   inkscape:version="0.92.4 (5da689c313, 2019-01-14)">
  <defs
     id="defs10" />
  <sodipodi:namedview
     pagecolor="#ffffff"
     bordercolor="#666666"
     borderopacity="1"
     objecttolerance="10"
     gridtolerance="10"
     guidetolerance="10"
     inkscape:pageopacity="0"
     inkscape:pageshadow="2"
     inkscape:window-width="1087"
     inkscape:window-height="480"
     id="namedview8"
     showgrid="false"
     inkscape:zoom="4.9166667"
     inkscape:cx="2.1355932"
     inkscape:cy="24"
     inkscape:window-x="0"
     inkscape:window-y="25"
     inkscape:window-maximized="0"
     inkscape:current-layer="svg6" />
  <metadata
     id="metadata2">
    <rdf:RDF>
      <cc:Work>
        <dc:format>image/svg+xml</dc:format>
        <dc:type
           rdf:resource="http://purl.org/dc/dcmitype/StillImage" />
        <dc:title></dc:title>
      </cc:Work>
    </rdf:RDF>
  </metadata>
  <path
     d="M 6.34,0.07 A 6.29,6.29 0 0 0 0.05,6.37 6.29,6.29 0 0 0 6.35,12.65 6.29,6.29 0 0 0 12.63,6.36 6.29,6.29 0 0 0 6.34,0.07 Z M 6.33,1.01 a 5.4,5.4 0 0 1 5.4,5.4 5.4,5.4 0 0 1 -5.4,5.41 A 5.4,5.4 0 0 1 0.92,6.42 5.4,5.4 0 0 1 6.32,1 Z M 6.19,3.41 C 6.11,3.41 6.06,3.45 6.03,3.54 5.1,5.08 4.18,6.64 3.24,8.2 3.02,8.53 2.81,8.95 2.39,9.05 2.24,9 2.23,9.25 2.3,9.29 H 4 C 4.02,9.12 3.98,9.02 3.78,9.06 3.39,9.12 3.43,8.66 3.58,8.44 3.75,8.09 3.96,7.75 4.15,7.41 H 6.1 C 6.16,7.83 6.26,8.25 6.3,8.68 6.37,9.03 5.98,9.07 5.73,9.08 5.66,9.06 5.63,9.33 5.75,9.29 H 7.77 V 9.28 h 0.1 c 0.22,0 0.45,-0.06 0.69,-0.2 0.16,-0.09 0.35,-0.23 0.56,-0.42 0,0.27 0.07,0.45 0.23,0.55 0.07,0.05 0.19,0.08 0.33,0.08 0.1,0 0.2,-0.02 0.3,-0.06 0.16,-0.07 0.31,-0.19 0.47,-0.37 V 8.63 A 1,1 0 0 1 10.27,8.75 0.46,0.46 0 0 1 10.07,8.8 C 9.95,8.8 9.87,8.76 9.85,8.68 A 1.55,1.55 0 0 1 9.81,8.3 V 6.6 C 9.81,6.2 9.76,5.9 9.65,5.71 9.45,5.39 9.08,5.22 8.52,5.22 c -0.44,0 -0.8,0.12 -1.07,0.35 -0.22,0.2 -0.33,0.4 -0.33,0.6 0,0.1 0.03,0.18 0.1,0.27 0.06,0.08 0.15,0.12 0.27,0.12 0.1,0 0.2,-0.04 0.28,-0.11 A 0.36,0.36 0 0 0 7.87,6.19 3.34,3.34 0 0 1 7.84,6.03 2,2 0 0 1 7.84,5.85 C 7.84,5.72 7.9,5.62 8.02,5.55 A 0.77,0.77 0 0 1 8.45,5.43 0.7,0.7 0 0 1 8.88,5.56 C 9.03,5.68 9.11,5.87 9.11,6.14 V 6.67 C 8.29,6.99 7.76,7.24 7.51,7.41 7.28,7.57 7.12,7.75 7.03,7.96 L 6.67,5.81 6.27,3.4 a 0.3,0.3 0 0 0 -0.08,0 z M 5.66,4.7 6.04,6.99 H 4.34 L 5.66,4.69 Z M 9.1,6.88 V 8.13 A 0.72,0.72 0 0 1 9.05,8.44 C 9.02,8.5 8.93,8.56 8.81,8.62 8.75,8.66 8.66,8.69 8.56,8.72 A 0.9,0.9 0 0 1 8.27,8.78 0.52,0.52 0 0 1 7.87,8.58 0.74,0.74 0 0 1 7.7,8.08 C 7.7,7.88 7.78,7.7 7.92,7.53 8.14,7.29 8.53,7.07 9.1,6.88 Z"
     id="path4"
     inkscape:connector-curvature="0"
     style="fill:#2c89a0" />
</svg>
